X:42
T:Fingalian Air, A
T:Fonn air D\`ain F\'einne
R:Slow Air
S:Simon Fraser Collection
N:No.129
O:Scottish
M:3/4
L:1/8
K:C
G2|c4G2|c4 c/d/c/B/|A2d2B2|c4 d>e|a4g2|g>a g2f2|e4 d>e|a4 c>d|e4d2|c4:|
|:e>d|c4B>A|G4c>B|A2d2B2|c4d>e|a4g2|g>a g2f2|e4 d>e|a4 e>d|c4B2|A4:|

